packages/app/src/assets/download.svg

<svg width="24" height="24" viewBox="0 0 24 24" fill="currentColor" xmlns="http://www.w3.org/2000/svg" focusable="false">
	<path d="M18 17V19H6V17H3V21C3 21.2652 3.10536 21.5196 3.29289 21.7071C3.48043 21.8947 3.73478 22 4 22H20C20.2652 22 20.5196 21.8947 20.7071 21.7071C20.8946 21.5196 21 21.2652 21 21V17H18Z" fill="currentColor" />
	<path d="M10.941 16.476C11.0678 16.6352 11.2289 16.7638 11.4122 16.8521C11.5956 16.9405 11.7965 16.9863 12 16.9863C12.2035 16.9863 12.4044 16.9405 12.5878 16.8521C12.7711 16.7638 12.9322 16.6352 13.059 16.476L18.841 9.24303C19.042 8.99345 19.1479 8.68069 19.14 8.36036C19.132 8.04003 19.0108 7.73289 18.7977 7.49356C18.5846 7.25423 18.2936 7.09821 17.9763 7.05326C17.6591 7.0083 17.3362 7.07732 17.065 7.24803L14 9.16003V3.42003C14 2.33203 13.06 2.00903 12.001 2.00903C10.94 2.00903 10 2.33203 10 3.41903V9.16103L6.936 7.24803C6.66475 7.07672 6.34148 7.00729 6.02381 7.05211C5.70613 7.09693 5.4147 7.2531 5.20144 7.49278C4.98818 7.73246 4.86695 8.04007 4.85936 8.3608C4.85177 8.68153 4.95831 8.99454 5.16 9.24403L10.941 16.476Z" fill="currentColor" />
</svg>

<svg focusable="false" xmlns="http://www.w3.org/2000/svg" width="24" height="24" viewBox="0 0 24 24">
  <path d="M18 17v2H6v-2H3v4a1 1 0 001 1h16a1 1 0 001-1v-4h-3z" fill="currentColor"/>
  <path d="M10.941 16.476a1.354 1.354 0 002.118 0l5.782-7.233a1.354 1.354 0 00-1.776-1.995L14 9.16V3.42c0-1.088-.94-1.411-1.999-1.411-1.061 0-2.001.323-2.001 1.41v5.742L6.936 7.248A1.354 1.354 0 005.16 9.244l5.781 7.232z" fill="currentColor"/>
</svg>
